X:1
T:Reception
T:D Major, D minor        Jacob French, 1802
T:Transcribed from Harmony of Harmony, 1802.
T:Isaac Watts, 1709 (Hymn 36, Book 2)            66. 86. (S. M.) 
%%score [ 1 2 3 4 ]
L:1/8
Q:1/4=120
M:2/2
K:D
V:1 treble nm="Tr." snm="Tr."
V:2 treble nm="C." snm="C."
V:3 treble-8 nm="T." snm="T."
V:4 bass nm="B." snm="B."
V:1
 d4 | f2 f2 f2 e2 | d6 f2 | e2 d2 c2 B2 | c6 c2 | d>c de f2 d2 | e>d cB c2 c2 | B2 B2 A2 A2 | A8 | %9
 z4 F4 | A2 A2 B2 A2 | A6 A2 | A2 A2 ^G2 G2 | A6 A2 | A2 F2 B2 A2 | d2 d2 d2 e2 | fe dc B2 A2 | %17
 A8 ||[K:F][M:3/8][Q:1/4=70]"^{}" z2 [FA] | Ac d | GB c | A2 A |[M:2/4] AB cd | GA B2 | A3 A | %25
 A2 d2 | c2 B2 | AB c2 | d3 c | d<f c<B | A2 A2 | A4 ||[K:D] z4 | d2 d d | dB ec | A3 c | dc BA | %37
 GA Bd | c4 | de fe | d3 d | cd ed | c3 [ce] | fe dc | d2 c2 | d4 ||[K:F][M:3/4] z4 [Ff]2 | c4 B2 | %48
 A4 A2 | A4 A2 | A4 c2 | c4 (3(fed) | ^c4 c2 | d4 A2 | A4 A2 | (F2 G2) AB | c4 A2 | (A>G F2) B2 | %58
 A2 A4 | A6 ||[K:D][M:6/4][Q:1/4=120] z12 | z12 | z4 z2 z4 d2 | (B3 c d2) e4 d2 |[M:3/2] c8 d4 | %65
 A8 B4 | c8 e4 | A8 ^G4 | A8 A4 | (d4 c4) B4 | c8 A4 | A12 |[M:2/2] z4 A4 | (A>BAG A2) A2 | %74
 A2 A2 A2 A2 | F3 G A3 G | F8 | d4 d2 d2 | A2 A2 B2 A2 | A6 A2 | %80
"_this shall please the King,  And this shall please _________________________  the   King, And  this  shall    please ________   the   King." d2 e2 d2 c2 | %81
 d8 | A4 F2 A2 | (d3 c B3 A | Bc d2 e2) fd | c2 e2 d2 A2 | (BcdB e3) c | A8 |] %88
V:2
"_Well, the Redeemer's gone  T'appear before our God;  To   sprin  –   kle    o'er  the   flaming throne With   his  a –to –  ning  blood.        No" F4 | %1
 A2 A2 A2 A2 | A6 A2 | A2 A2 A2 G2 | A6 A2 | A2 A2 B2 B2 | B2 B2 A2 A2 | G2 G2 F2 E2 | F8 | z4 D4 | %10
"_fiery vengeance now, Nor burning wrath comes down.  If  justice  calls  for   sinners' blood, The Sa – vior shows his  own.                         Be –" F2 F2 G2 E2 | %11
 F6 E2 | D2 F2 E2 E2 | E6 E2 | F2 D2 G2 E2 | D2 DE F2 G2 | A2 A2 G2 E2 | F8 ||[K:F][M:3/8] z2 A | %19
"_–fore   his   Fa – ther's   eye  Our      hum  –    ble    suit     he       moves;   The  Fa  –   ther     lays   his     thun  –  ders    by,  And  looks,  and" F2 F | %20
 E2 E | D2 [DF] |[M:2/4] FED F | E2 D2 | ^C3 [CE] | FE DG | FA GF | E2 FG | A3 G | F<A F<D | %30
"_smiles, and loves." A,<D ^C2 | D4 ||[K:D] z4 | %33
"_Now may our  joy – ful  tongues Our Ma – ker's   ho  – nor     sing;  Je  – sus  the  Priest  re –ceives  our songs,  And" F2 F F | %34
 GF E2 | F3 A | A2 GA | BA B2 | A4 | A2 A A | A3 A | AG AB | A3 A | %43
"_bears  them  to  the  King.                    We bow before  his  face, And sound his glo – ries    high:  Hosannah  to         the   God    of  grace,  That" A2 AG | %44
 A2 A2 | A4 ||[K:F][M:3/4] z4 A2 | F4 E2 | D4 ^C2 | D4 ^C2 | D4 E2 | F4 A2 | A4 A2 | A4 A2 | %54
 (F2 E2) F2 | (D2 C2) D2 | E4 E2 | %57
"_lays     his   thunders   by.                                                                          And  triumphs all a – bove: But, Lord, how weak our mortal  strains  To" F4 E2 | %58
 D2 ^C4 | D6 ||[K:D][M:6/4] z12 | z12 | z4 z2 z4 A2 | (F2 G2) A2 B4 A2 |[M:3/2] A8 A4 | F8 D4 | %66
 F8 B,4 | (D4 E4) (F2 D2) | C8 F4 | %69
"_speak      im –mor – tal     love!             How  jar     –      ring  and how low Are  all the notes   we  sing.  Sweet Savior, tune our songs anew, And" F8 D4 | %70
 A8 (A3 G) | F12 |[M:2/2] z4 D4 | (!wedge!D2 !wedge!D2 !wedge!D2) D2 | C2 C2 C2 C2 | %75
 D2 B,D C2 A,C | B,8 | F4 F2 F2 | F2 F2 DG FE | F6 A2 | %80
"_this shall please the King,                      And      this   shall     please _________  the    King,  And this shall   please ________   the  King." G2 B2 A3 G | %81
 ((F8 | [DF]4)) z4 | A4 F2 FE | (D3 F GA) B2 | A2 AG F2 D2 | (DCB,D C3) E | D8 |] %88
V:3
 A4 | d2 d2 d2 e2 | f6 d2 | e2 f2 e2 d2 | e6 e2 | f>g fe d2 f2 | g>a gf e2 f2 | d2 e2 d2 c2 | d8 | %9
 z4 A4 | d2 d2 d2 c2 | d6 e2 | f2 d2 c2 B2 | A6 A2 | F2 A2 d2 c2 | B2 B2 A2 G2 | F2 A2 d2 c2 | %17
 d8 ||[K:F][M:3/8] z2 d | cA F | BG E | F2 A |[M:2/4] cB AG | BA GF | E3 E | DE FG | A2 d2 | %27
 cB AG | F3 G | A<d A<G | F<D E2 | D4 ||[K:D] z4 | A2 A A | Bd ce | d3 e | f2 ed | ef gf | e4 | %39
 fe d e | f3 f | ed cd | e3 e | de fg | f2 e2 | f4 ||[K:F][M:3/4] z4 d2 | A4 G2 | F4 E2 | D4 E2 | %50
 F4 G2 | A4 (3(def) | e4 e2 | f4 e2 | (d2 ^c2) d2 | (A2 G2) F2 | A4 c2 | (d2 A2) G2 | F2 E4 | D6 || %60
[K:D][M:6/4] z12 | z12 | z4 z2 z4 A2 | (d2 e2) f2 g4 f2 |[M:3/2] e8 f4 | (d6 c2) B4 | A8 G4 | %67
 (F4 E4) D4 | E8 d4 | a8 g4 | f8 e4 | d12 |[M:2/2] z4 D4 | (F>GFE F2) F2 | E2 E2 E2 E2 | %75
 D2 D2 C2 C2 | D8 | A4 A2 A2 | d2 c2 B2 c2 | d6 c2 | %80
"_this shall please the King,            And   this shall please ______________________________ the King, And   this   shall  please  the  King." B2 G2 F2 E2 | %81
 A8 | z4 A4 | F2 A2 (d3 c | B3 A Bcdc | e3) c A2 F2 | DE FG A3 G | F8 |] %88
V:4
 D,4 | D,2 D,2 D,2 A,2 | D6 D,2 | A,2 A,2 A,2 B,2 | A,6 A,2 | D>E DC B,2 B,2 | G,>F, E,D, A,2 F,2 | %7
 G,2 E,2 F,G, A,2 | D,8 | z4 D,4 | D,2 D,2 G,2 A,2 | D,6 A,,2 | D,2 D,2 E,2 E,2 | A,,6 A,,2 | %14
 D,2 F,2 G,2 A,2 | B,2 G,2 F,2 E,2 | D,2 F,2 G,2 A,2 | D,8 ||[K:F][M:3/8] z2 D, | F,2 D, | E,2 C, | %21
 D,2 D, |[M:2/4] A,,3 B,, | G,,3 G,, | A,,3 A,, | D,C, D,E, | F,2 G,2 | A,G, F,E, | D,3 E, | %29
 F,<D, F,<G, | A,2 A,,2 | D,4 ||[K:D] z4 | D,2 D, D, | G,2 A,2 | D,3 A, | D,2 E,F, | G,F, E,D, | %38
 A,4 | DA, F, A, | D3 D | A,B, A,D | A,3 A, | DA, DE | D2 A,2 | D4 ||[K:F][M:3/4] z4 D,2 | %47
 F,4 G,2 | A,4 A,,2 | D,4 A,,2 | D,4 C,2 | F,4 D,2 | A,4 A,2 | D,4 C,2 | (D,2 A,,2) D,2 | %55
 (F,2 E,2) D,2 | A,,4 A,,2 | (D,>E, F,2) G,2 | A,2 A,,4 | D,6 || %60
[K:D][M:6/4] z4 z2"_On  earth  thy mercy   reigns," [D,D]6 | %61
 ([F,A,]2 [E,G,]2) [D,F,]2 ([E,G,]2 [D,F,]2) [C,E,]2 | D,6- D,4 D,2 | (D,2 G,2) F,2 E,4 D,2 | %64
[M:3/2] A,8 D,4 | D,8 G,4 | F,8 E,4 | (D,4 C,4) B,,4 | A,,8 D,4 | (D,3 E, F,4) G,4 | A,8 A,,4 | %71
 D,12 |[M:2/2] z4 D,4 | (!wedge!D,2 !wedge!D,2 !wedge!D,2) D,2 | A,,2 A,,2 A,,2 A,,2 | %75
 B,,2 B,,2 A,,2 A,,2 | B,,8 | D,4 D,2 D,2 | D,2 F,2 G,2 A,2 | D,6 F,2 | %80
"_this shall please the King, _________________   And            this     shall   please ________   the  King,  And   this  shall   please   the  King." G,2 E,2 A,2 A,,2 | %81
 D,8- | D,8- | D,4 D,4 | G,2 G,F, (E,2 D,2 | A,2) A,,2 D,2 D,C, | B,,2 B,,2 A,,3 A,, | D,8 |] %88

